X: 31051
T: Paddy Cronin's
R: reel
M: 4/4
K: Gmajor
|:B|dGBG ABcA|dGBG c2 Bc|dGBG ABcA|dBcA G3:|
|:B|ddde fdec|dggf g2 ag|fd ~d2 ec ~c2|dBcA G3:|

